icons/light-bulb-24.svg

<svg width="24" height="24" viewBox="0 0 24 24" xmlns="http://www.w3.org/2000/svg">
<path fill-rule="evenodd" clip-rule="evenodd" d="M12 2.5C8.18992 2.5 5.5 5.2434 5.5 8.61852C5.5 10.1551 6.13164 11.1908 6.92487 12.1795C7.09672 12.3937 7.27206 12.6008 7.45239 12.8138L7.54771 12.9264C7.75835 13.1756 7.97456 13.434 8.17724 13.7C8.58211 14.2313 8.96122 14.8281 9.17348 15.534C9.29276 15.9307 9.0679 16.3489 8.67123 16.4682C8.27457 16.5875 7.85631 16.3626 7.73702 15.966C7.59893 15.5068 7.3397 15.0757 6.98415 14.6091C6.80661 14.3761 6.61208 14.1431 6.4022 13.8948L6.30999 13.7859C6.13007 13.5734 5.94023 13.3492 5.75485 13.1182C4.87063 12.016 4 10.651 4 8.61852C4 4.36216 7.41531 1 12 1C16.5846 1 19.9999 4.36216 19.9999 8.61852C19.9999 10.651 19.1293 12.016 18.2451 13.1182C18.0597 13.3492 17.8699 13.5733 17.6901 13.7857L17.69 13.7858L17.5977 13.8948C17.3878 14.1431 17.1933 14.3761 17.0158 14.6091C16.6602 15.0757 16.401 15.5068 16.2629 15.966C16.1436 16.3626 15.7254 16.5875 15.3287 16.4682C14.932 16.3489 14.7072 15.9307 14.8264 15.534C15.0387 14.8281 15.4178 14.2313 15.8227 13.7C16.0254 13.434 16.2416 13.1756 16.4522 12.9264L16.5476 12.8138L16.5476 12.8137L16.5478 12.8135C16.728 12.6006 16.9033 12.3936 17.0751 12.1795C17.8683 11.1908 18.4999 10.1551 18.4999 8.61852C18.4999 5.2434 15.81 2.5 12 2.5ZM9.5 21.75C9.5 21.3358 9.83579 21 10.25 21H13.75C14.1642 21 14.5 21.3358 14.5 21.75C14.5 22.1642 14.1642 22.5 13.75 22.5H10.25C9.83579 22.5 9.5 22.1642 9.5 21.75ZM8.75 18C8.33579 18 8 18.3358 8 18.75C8 19.1642 8.33579 19.5 8.75 19.5H15.25C15.6642 19.5 16 19.1642 16 18.75C16 18.3358 15.6642 18 15.25 18H8.75Z" />
</svg>

<svg xmlns="http://www.w3.org/2000/svg" width="24" height="24" viewBox="0 0 24 24"><path fill-rule="evenodd" d="M12 2.5c-3.81 0-6.5 2.743-6.5 6.119 0 1.536.632 2.572 1.425 3.56.172.215.347.422.527.635l.096.112c.21.25.427.508.63.774.404.531.783 1.128.995 1.834a.75.75 0 01-1.436.432c-.138-.46-.397-.89-.753-1.357a18.354 18.354 0 00-.582-.714l-.092-.11c-.18-.212-.37-.436-.555-.667C4.87 12.016 4 10.651 4 8.618 4 4.363 7.415 1 12 1s8 3.362 8 7.619c0 2.032-.87 3.397-1.755 4.5-.185.23-.375.454-.555.667l-.092.109c-.21.248-.405.481-.582.714-.356.467-.615.898-.753 1.357a.75.75 0 01-1.437-.432c.213-.706.592-1.303.997-1.834.202-.266.419-.524.63-.774l.095-.112c.18-.213.355-.42.527-.634.793-.99 1.425-2.025 1.425-3.561C18.5 5.243 15.81 2.5 12 2.5zM9.5 21.75a.75.75 0 01.75-.75h3.5a.75.75 0 010 1.5h-3.5a.75.75 0 01-.75-.75zM8.75 18a.75.75 0 000 1.5h6.5a.75.75 0 000-1.5h-6.5z"/></svg>
